assets/icons_media/apple-login.svg

<svg width="20" height="24" viewBox="0 0 20 24" fill="none" xmlns="http://www.w3.org/2000/svg">
<path d="M14.6172 0C14.6731 0 14.729 0 14.788 0C14.925 1.69253 14.279 2.95719 13.4938 3.87301C12.7234 4.78251 11.6685 5.6646 9.96226 5.53076C9.84844 3.86247 10.4955 2.69161 11.2796 1.77789C12.0068 0.92636 13.3399 0.168621 14.6172 0Z" fill="black"/>
<path d="M19.7831 17.6164C19.7831 17.6332 19.7831 17.648 19.7831 17.6638C19.3036 19.1161 18.6196 20.3607 17.785 21.5157C17.023 22.5643 16.0893 23.9755 14.422 23.9755C12.9814 23.9755 12.0245 23.0491 10.548 23.0238C8.98613 22.9985 8.12722 23.7984 6.69921 23.9997C6.53586 23.9997 6.37251 23.9997 6.21232 23.9997C5.16371 23.848 4.31744 23.0175 3.70092 22.2693C1.88298 20.0582 0.478159 17.2022 0.216797 13.5474C0.216797 13.189 0.216797 12.8318 0.216797 12.4735C0.327454 9.85772 1.59843 7.73099 3.2878 6.7003C4.17938 6.15228 5.40505 5.68541 6.76982 5.89408C7.35472 5.98471 7.95227 6.18495 8.47605 6.38308C8.97243 6.57383 9.59316 6.91213 10.1812 6.89421C10.5796 6.88262 10.9759 6.67501 11.3774 6.52852C12.5535 6.1038 13.7065 5.61691 15.2262 5.8456C17.0525 6.12172 18.3488 6.93321 19.1497 8.18521C17.6048 9.16848 16.3833 10.6502 16.592 13.1806C16.7775 15.4791 18.1138 16.8239 19.7831 17.6164Z" fill="black"/>
</svg>

<svg xmlns="http://www.w3.org/2000/svg" fill="none" viewBox="0 0 20 24"><path fill="#000" d="M14.6 0h.2c.1 1.7-.5 3-1.3 3.9-.8.9-1.8 1.8-3.5 1.6a5 5 0 0 1 1.3-3.7c.7-.9 2-1.6 3.3-1.8Zm5.2 17.6a14 14 0 0 1-2 4c-.8 1-1.7 2.4-3.4 2.4-1.4 0-2.4-1-3.9-1s-2.4.8-3.8 1h-.5c-1-.2-1.9-1-2.5-1.7a16 16 0 0 1-3.5-8.8v-1a7 7 0 0 1 3-5.8 6 6 0 0 1 3.6-.8c.6 0 1.2.3 1.7.5s1 .5 1.7.5c.4 0 .8-.2 1.2-.4 1.2-.4 2.3-.9 3.8-.7 1.9.3 3.1 1.1 4 2.4a5 5 0 0 0-2.6 5 5.2 5.2 0 0 0 3.2 4.4Z"/></svg>
